X:1
T:Title
L:1/8
Q:1/4=85
M:6/8
K:F
V:1 treble nm="Church Organ, Staff"
V:1
 F G2 B A2 | FA>G F/E/ D2 | D F2 F G2 | G A2 A F2- | FGB A G2 | F G2- G3- | G G2 G A2 | A c2 B A2 | %8
w: By~Traditional~~R.R.~Chope * * *||||||||
 G B2 A F2 | G A2- A A2 | D F2 F G2 | G A2 A F2- | FGB A G2 | F G2- G G2 | d c2 B A2 | G F2 E D2 | %16
w: ||||||||
 D F2 GFE- | E D2- D D2 | D F2 F G2 | G A2- A/ z/ F2- | FGB A G2 | F G2- G G2 |] %22
w: ||||||

